resources/chip.svg

<svg xmlns="http://www.w3.org/2000/svg" width="24" height="24" fill="#f4f4f7" viewBox="0 0 24 24"><path stroke="#374151" stroke-linecap="round" stroke-linejoin="round" stroke-width="2" d="M9 3V5M15 3V5M9 19V21M15 19V21M5 9H3M5 15H3M21 9H19M21 15H19M7 19H17C18.1046 19 19 18.1046 19 17V7C19 5.89543 18.1046 5 17 5H7C5.89543 5 5 5.89543 5 7V17C5 18.1046 5.89543 19 7 19ZM9 9H15V15H9V9Z"/></svg>

<svg width="24" height="24" fill="#f4f4f7">
  <path stroke="#374151" stroke-linecap="round" stroke-linejoin="round" stroke-width="2" d="M9 3v2m6-2v2M9 19v2m6-2v2M5 9H3m2 6H3m18-6h-2m2 6h-2M7 19h10a2 2 0 0 0 2-2V7a2 2 0 0 0-2-2H7a2 2 0 0 0-2 2v10a2 2 0 0 0 2 2ZM9 9h6v6H9V9Z"/>
</svg>
